dist/img/icons/chevron-back.svg

<svg width="32" height="29" viewBox="0 0 32 29" fill="none" xmlns="http://www.w3.org/2000/svg">
<path d="M18.44 22.8403C18.2408 22.8409 18.044 22.8013 17.864 22.7243C17.684 22.6473 17.5255 22.535 17.4 22.3955L10.96 15.1827C10.7639 14.9676 10.6567 14.6978 10.6567 14.4194C10.6567 14.141 10.7639 13.8711 10.96 13.656L17.6267 6.4433C17.853 6.19781 18.1782 6.04343 18.5308 6.01412C18.8833 5.98481 19.2344 6.08298 19.5067 6.28703C19.779 6.49107 19.9502 6.78429 19.9827 7.10216C20.0152 7.42003 19.9063 7.73653 19.68 7.98202L13.72 14.4254L19.48 20.8688C19.643 21.0452 19.7466 21.2601 19.7784 21.488C19.8103 21.7158 19.7691 21.9472 19.6597 22.1546C19.5502 22.362 19.3772 22.5368 19.1611 22.6583C18.9449 22.7798 18.6947 22.843 18.44 22.8403Z" fill="white"/>
</svg>

<svg width="32" height="29" fill="none" xmlns="http://www.w3.org/2000/svg"><path d="M18.44 22.84c-.2 0-.396-.039-.576-.116a1.322 1.322 0 0 1-.464-.329l-6.44-7.212a1.132 1.132 0 0 1-.303-.764c0-.278.107-.548.303-.763l6.667-7.213c.226-.245.551-.4.904-.429.352-.03.703.069.976.273.272.204.443.497.476.815.032.318-.077.635-.303.88l-5.96 6.443 5.76 6.444c.163.176.267.391.298.619a1.1 1.1 0 0 1-.118.667c-.11.207-.283.382-.499.503a1.444 1.444 0 0 1-.721.182Z" fill="#fff"/></svg>
